packages/foundations/assets/icons/functional/images/transportation/airplane_16.svg

<svg width="16" height="16" viewBox="0 0 16 16" fill="none" xmlns="http://www.w3.org/2000/svg">
<g clip-path="url(#clip0_187_820)">
<path fill-rule="evenodd" clip-rule="evenodd" d="M7.04657 2.83228C7.78053 3.56148 8.51359 4.29138 9.24573 5.022L9.49201 4.94535C11.3771 4.33901 13.5843 4.9815 14.2387 6.46163C14.7103 7.52866 14.1066 8.68502 12.9146 9.1159L10.7564 9.79482L9.06647 12.8825C8.94734 13.0806 8.8107 13.2297 8.5462 13.36C7.35336 13.9475 6.5186 13.1377 6.5186 12.3201C6.5139 11.924 6.51023 11.5278 6.5076 11.1316L5.75919 11.3625C4.53595 11.7625 3.1543 11.205 2.69215 9.88815C2.3459 8.91802 2.00065 7.94761 1.65643 6.97691C1.50235 6.4577 1.65643 5.86274 2.25708 5.55766C2.31654 5.52793 2.37715 5.49992 2.43892 5.47363C2.91468 5.26191 3.40016 5.40254 3.73826 5.71927L4.5276 6.50042L5.58253 6.17L4.67343 4.31178C4.38228 3.63108 4.7374 2.75215 5.51078 2.56522C5.59837 2.53957 5.68636 2.51492 5.77475 2.49128C6.19208 2.37342 6.65997 2.4428 7.04657 2.83228ZM9.97624 6.4703C8.16539 7.03625 6.35579 7.60345 4.54744 8.1719C4.29631 8.25062 3.90795 8.25062 3.6908 7.92282C3.7872 8.21771 3.95715 8.69504 4.20064 9.35482C4.32162 9.69956 4.73659 10.0449 5.2753 9.8375C5.87233 9.65483 6.4686 9.47136 7.0641 9.2871C7.54573 9.13891 8.09258 9.47239 8.09934 10.0449C8.10428 10.4629 8.10756 10.8808 8.1092 11.2988L9.50712 8.74458C9.57333 8.62355 9.63877 8.49671 9.96969 8.36515C10.4942 8.19693 11.2691 7.95404 12.2944 7.63648C12.727 7.50383 12.8345 7.34249 12.7643 7.09432C12.6942 6.84614 12.3091 6.59563 11.8847 6.45823C11.3609 6.28861 10.5601 6.2886 9.97624 6.4703Z" fill="#1A1C1F"/>
</g>
<defs>
<clipPath id="clip0_187_820">
<rect width="16" height="16" fill="white"/>
</clipPath>
</defs>
</svg>

<svg xmlns="http://www.w3.org/2000/svg" width="16" height="16" fill="none"><g clip-path="url(#a)"><path fill="#1A1C1F" fill-rule="evenodd" d="m7.047 2.832 2.199 2.19.246-.077c1.885-.606 4.092.036 4.747 1.517.471 1.067-.132 2.223-1.324 2.654l-2.159.679-1.69 3.088c-.119.198-.255.347-.52.477-1.193.588-2.027-.222-2.027-1.04q-.008-.594-.011-1.188l-.749.23c-1.223.4-2.605-.157-3.067-1.474L1.656 6.977c-.154-.52 0-1.114.601-1.42q.09-.045.182-.083c.476-.212.961-.071 1.3.245l.789.781 1.055-.33-.91-1.858c-.29-.68.064-1.56.838-1.747l.264-.074a1.25 1.25 0 0 1 1.272.341m2.93 3.638q-2.717.849-5.43 1.702c-.25.079-.639.079-.856-.25q.144.443.51 1.433c.12.345.536.69 1.074.482l1.79-.55a.798.798 0 0 1 1.034.758q.008.627.01 1.254l1.398-2.554c.066-.121.132-.248.463-.38q.787-.252 2.324-.729c.433-.132.54-.294.47-.542s-.455-.498-.88-.636c-.523-.17-1.324-.17-1.908.012" clip-rule="evenodd"/></g><defs><clipPath id="a"><path fill="#fff" d="M0 0h16v16H0z"/></clipPath></defs></svg>
